X:1
T:Marin, CMD
T:Marin, CMD
T:W. Irving Hartshorn, 1880
T:Public Domain Courtesy of the Cyber Hymnal™
C:W. Irving Hartshorn, 1880
Z:Public Domain
Z:Courtesy of the Cyber Hymnal™
%%score ( 1 2 ) ( 3 4 )
L:1/8
Q:1/4=90
M:3/4
K:Bb
V:1 treble 
V:2 treble 
V:3 bass 
V:4 bass 
V:1
 ([B,D]/[CE]/) | [DF]2 [DB] [Ec]2 [Fd] | [EG]2 [FA] [GB]2 [EG] | [DF]2 [DB] (B c)[Fd] | %4
 [Fc]3- [Fc]2 ([FA]/[EG]/) | [DF]2 [DB] [Ec]2 [Fd] | [Gf]2 [Ge] !fermata![EG]2 [EG] | %7
 [DF]2 [DB] ([CA] [DB])[Ec] | [DB]3- [DB]2 ([CA]/[DB]/) | [Ec]2 [Ec] ([Ec] [DB])[Ec] | %10
 [Fd]2 [Ge] [Fd]2 [Fd] | [Ge]2 [Ge] [Fd]2 [FB] | [Fc]3- [Fc]2 ([FA]/[EG]/) | %13
 [DF]2 [DB] [Ec]2 [Fd] | [Gf]2 [Ge] !fermata![EG]2 [Gc] | [FB]2 [FB] (A G)[EA] | [DB]3- [DB]2 |] %17
V:2
 x | x6 | x6 | x3 F2 x | x6 | x6 | x6 | x6 | x6 | x6 | x6 | x6 | x6 | x6 | x6 | x3 F2 x | x5 |] %17
V:3
 [B,,F,] | [B,,B,]2 [B,,B,] [B,,B,]2 [B,,B,] | [E,B,]2 [E,B,] [E,B,]2 [E,B,] | %3
 [B,,B,]2 [B,,B,] B,2 [B,,B,] | [F,A,]3- [F,A,]2 (C/A,/) | [B,,B,]2 [B,,B,] [B,,B,]2 [B,,B,] | %6
 [E,B,]2 [E,B,] !fermata![E,B,]2 [E,B,] | [F,B,]2 [F,B,] (C B,)[F,A,] | [B,,B,]3- [B,,B,]2 F, | %9
 [F,A,]2 [F,A,] (A, B,)[F,A,] | [B,,B,]2 [B,,B,] [B,,B,]2 [B,,B,] | %11
 [E,B,]2 [E,B,] [B,,B,]2 [D,B,] | [F,A,]3- [F,A,]2 (C/A,/) | [B,,B,]2 [B,,B,] [B,,B,]2 [B,,B,] | %14
 [E,B,]2 [E,B,] !fermata![E,B,]2 [E,E] | [F,D]2 [F,D] (C B,)[F,C] | [B,,B,]3- [B,,B,]2 |] %17
V:4
 x | x6 | x6 | x3 (D, C,) x | x5 F, | x6 | x6 | x3 F,2 x | x5 F, | x3 F,2 x | x6 | x6 | x5 F, | %13
 x6 | x6 | x3 F,2 x | x5 |] %17

